X: 1
T: Eleanor Rigby
C: Beatles
R: jig
N: This is NOT the original version of the tune!!!
M: 6/8
L: 1/8
K: Em
"I"\
|: "C"e3 efg | a2g f2e | "Em"BG2- GAB | GBF BEB :|
"A"\
|:"Em"GAB GE2 | GAB d^cB | ^cBA BAG | "C"A6 | GAB "Em"cB2 :|
"B"\
[|"Em"A2G A2B | GE2 z2E | "C"e2B AG2 | "Em"E6 \
|     A2G A2B | GE2 z2E | "C"g2e BA2 | "Em"G6 |]
